icons/glyphs/glyph-meter.svg

<?xml version="1.0" encoding="UTF-8" standalone="no"?><svg height="16" viewBox="0 0 4.2333333 4.2333333" width="16" xmlns="http://www.w3.org/2000/svg"><sodipodi:namedview/><metadata><rdf:RDF><cc:Work><dc:format>image/svg+xml</dc:format><dc:type/><dc:title/></cc:Work></rdf:RDF></metadata><path d="m2.1094319.8340727a2.3173511 2.3173511 0 0 0 -2.1094319 1.3859619l1.615922.7100341a.55264782.55264782 0 0 1  .5053955-.3312459.55264782.55264782 0 0 1  .1049032.0108522l.7100341-1.3239503-.4893758 1.4200684a.55264782.55264782 0 0 1  .177767.2185913l1.6086873-.7265707a2.3173511 2.3173511 0 0 0 -2.1239014-1.363741zm.00723 2.095996a.2345645.2345645 0 0 0 -.234611.2346111.2345645.2345645 0 0 0  .234611.234611.2345645.2345645 0 0 0  .2346111-.234611.2345645.2345645 0 0 0 -.2346111-.2346111z" fill="#d0d0d0" opacity=".932" stroke-width=".260374"/></svg>

<?xml version="1.0" encoding="UTF-8" standalone="no"?>
<!-- Created with Inkscape (http://www.inkscape.org/) -->

<svg
     xmlns:dc="http://purl.org/dc/elements/1.1/"
     xmlns:cc="http://creativecommons.org/ns#"
     xmlns:rdf="http://www.w3.org/1999/02/22-rdf-syntax-ns#"
     xmlns:svg="http://www.w3.org/2000/svg"
     xmlns="http://www.w3.org/2000/svg"
     xmlns:sodipodi="http://sodipodi.sourceforge.net/DTD/sodipodi-0.dtd"
     xmlns:inkscape="http://www.inkscape.org/namespaces/inkscape"
     width="16"
     height="16"
     viewBox="0 0 4.2333333 4.2333333"
     version="1.1"
     id="svg8"
     inkscape:version="0.92+devel (fa9b7f7a5b, 2017-07-19, custom)"
     sodipodi:docname="glyph-meter.svg">
    <defs
         id="defs2" />
    <sodipodi:namedview
         id="base"
         pagecolor="#002466"
         bordercolor="#ffffff"
         borderopacity="0.38039216"
         inkscape:pageopacity="1"
         inkscape:pageshadow="2"
         inkscape:zoom="26.5625"
         inkscape:cx="7.1962422"
         inkscape:cy="7.0429004"
         inkscape:document-units="px"
         inkscape:current-layer="svg8"
         inkscape:document-rotation="0"
         showgrid="false"
         inkscape:showpageshadow="false"
         borderlayer="true"
         inkscape:window-width="1920"
         inkscape:window-height="1051"
         inkscape:window-x="0"
         inkscape:window-y="0"
         inkscape:window-maximized="1"
         units="px"
         inkscape:snap-object-midpoints="true"
         inkscape:snap-center="true"
         inkscape:snap-bbox="true"
         inkscape:snap-bbox-edge-midpoints="true"
         showguides="true"
         inkscape:guide-bbox="true" />
    <metadata
         id="metadata5">
        <rdf:RDF>
            <cc:Work
                 rdf:about="">
                <dc:format>image/svg+xml</dc:format>
                <dc:type
                     rdf:resource="http://purl.org/dc/dcmitype/StillImage" />
                <dc:title></dc:title>
            </cc:Work>
        </rdf:RDF>
    </metadata>
    <path
         style="opacity:0.93199978;fill:#d0d0d0;stroke-width:0.26037377"
         d="M 2.1094319,0.8340727 A 2.3173511,2.3173511 0 0 0 0,2.2200346 L 1.615922,2.9300687 A 0.55264782,0.55264782 0 0 1 2.1213175,2.5988228 0.55264782,0.55264782 0 0 1 2.2262207,2.609675 L 2.9362548,1.2857247 2.446879,2.7057931 A 0.55264782,0.55264782 0 0 1 2.624646,2.9243844 L 4.2333333,2.1978137 A 2.3173511,2.3173511 0 0 0 2.1094319,0.8340727 Z m 0.00723,2.095996 A 0.2345645,0.2345645 0 0 0 1.8820509,3.1646798 0.2345645,0.2345645 0 0 0 2.1166619,3.3992908 0.2345645,0.2345645 0 0 0 2.351273,3.1646798 0.2345645,0.2345645 0 0 0 2.1166619,2.9300687 Z"
         id="path6"
         inkscape:connector-curvature="0" />
</svg>
